godot/editor/icons/Color.svg

<svg height="12" viewBox="0 0 16 12" width="16" xmlns="http://www.w3.org/2000/svg"><path d="m4 4a3 3 0 0 0 -3 3 3 3 0 0 0 3 3h1v-2h-1a1 1 0 0 1 -1-1 1 1 0 0 1 1-1h1v-2z" fill="#ff5f5f"/><path d="m14 4a3 3 0 0 0 -3 3v3h2v-3a1 1 0 0 1 1-1h1v-2z" fill="#5fb2ff"/><path d="m6 2v5a3 3 0 0 0 3 3h1v-2h-1a1 1 0 0 1 -1-1v-5z" fill="#5fff97"/></svg>

<svg height="12" viewBox="0 0 16 12" width="16" xmlns="http://www.w3.org/2000/svg"><path d="M4 4a3 3 0 0 0 0 6h1V8H4a1 1 0 0 1 0-2h1V4z" fill="#ff5f5f"/><path d="M6 2v5a3 3 0 0 0 3 3h1V8H9a1 1 0 0 1-1-1V2z" fill="#5fff97"/><path d="M14 4a3 3 0 0 0-3 3v3h2V7a1 1 0 0 1 1-1h1V4z" fill="#5fb2ff"/></svg>
